src/dsmComponents/Icons/warning-1-12px.svg

<?xml version="1.0" encoding="UTF-8"?>
<svg width="12px" height="11px" viewBox="0 0 12 11" version="1.1" xmlns="http://www.w3.org/2000/svg" xmlns:xlink="http://www.w3.org/1999/xlink">
    <!-- Generator: Sketch 59.1 (86144) - https://sketch.com -->
    <title>warning-1-12px</title>
    <desc>Created with Sketch.</desc>
    <defs>
        <path d="M0.0633880543,10.2317368 C-0.127414714,10.5808421 0.135389099,11 0.546395061,11 L11.4539533,11 C11.8643592,11 12.1277631,10.5808421 11.9363603,10.2317368 L6.48288118,0.279052632 C6.37967968,0.0926315789 6.19007693,0 6.00047418,0 C5.80967141,0 5.61946865,0.0926315789 5.51806718,0.279052632 L0.0633880543,10.2317368 Z M6.00047418,1.76289474 L10.4249384,9.83631579 L1.57601,9.83631579 L6.00047418,1.76289474 Z M5.45446626,6.80957895 C5.45446626,7.09847368 5.69986982,7.33236842 6.00047418,7.33236842 C6.30107854,7.33236842 6.54588209,7.09847368 6.54588209,6.80957895 L6.54588209,4.71378947 C6.54588209,4.42373684 6.30107854,4.18984211 6.00047418,4.18984211 C5.69986982,4.18984211 5.45446626,4.42373684 5.45446626,4.71378947 L5.45446626,6.80957895 Z M6.00047418,8.90478947 C6.30107854,8.90478947 6.54588209,8.67031579 6.54588209,8.38026316 C6.54588209,8.09136842 6.30107854,7.85689474 6.00047418,7.85689474 C5.69986982,7.85689474 5.45446626,8.09136842 5.45446626,8.38026316 C5.45446626,8.67031579 5.69986982,8.90478947 6.00047418,8.90478947 L6.00047418,8.90478947 Z" id="path-1"></path>
    </defs>
    <g id="Final" stroke="none" stroke-width="1" fill="none" fill-rule="evenodd">
        <g id="All-Nucleo-Icons" transform="translate(-174.000000, -5660.000000)">
            <g id="Solo/Nucleo/12px/warning-1" transform="translate(168.000000, 5653.000000)">
                <g id="warning-1" transform="translate(6.000000, 7.000000)">
                    <g id="Colour/Default-Colour">
                        <mask id="mask-2" fill="white">
                            <use xlink:href="#path-1"></use>
                        </mask>
                        <use id="Mask" fill="#000000" xlink:href="#path-1"></use>
                        <g id="colour/neutral/chia" mask="url(#mask-2)" fill="#737373">
                            <g transform="translate(-13.000000, -14.000000)" id="Colour">
                                <rect x="0" y="0" width="38.4" height="38.4"></rect>
                            </g>
                        </g>
                    </g>
                </g>
            </g>
        </g>
    </g>
</svg>

<svg width="12" height="11" xmlns="http://www.w3.org/2000/svg" xmlns:xlink="http://www.w3.org/1999/xlink"><defs><path d="M.063 10.232c-.19.349.072.768.483.768h10.908c.41 0 .674-.42.482-.768L6.483.279A.544.544 0 006 0a.54.54 0 00-.482.28L.063 10.231zM6 1.762l4.425 8.074H1.576L6 1.763zM5.454 6.81c0 .288.246.522.546.522a.535.535 0 00.546-.522V4.714A.535.535 0 006 4.19c-.3 0-.546.234-.546.524V6.81zM6 8.905a.536.536 0 00.546-.525A.535.535 0 006 7.857c-.3 0-.546.234-.546.523 0 .29.246.525.546.525z" id="warning-1-12px_svg__a"/></defs><use fill="#737373" xlink:href="#warning-1-12px_svg__a" fill-rule="evenodd"/></svg>
